images/Logo (2).svg

<svg width="104" height="56" viewBox="0 0 104 56" fill="none" xmlns="http://www.w3.org/2000/svg">
<path d="M36.8098 49.2233C36.8259 49.2236 36.8418 49.2268 36.8565 49.2324C36.8712 49.2381 36.8844 49.2462 36.8954 49.2563L37.1162 49.4639C36.9448 49.6319 36.733 49.7662 36.4951 49.8578C36.2167 49.9577 35.9165 50.0059 35.6146 49.9993C35.3309 50.0043 35.049 49.9593 34.7865 49.8672C34.5497 49.7826 34.337 49.6555 34.1626 49.4945C33.9848 49.3275 33.8477 49.1319 33.7596 48.919C33.6632 48.6817 33.6155 48.4319 33.6189 48.1807C33.6149 47.9279 33.6664 47.6766 33.7707 47.44C33.8671 47.2258 34.0126 47.0301 34.1985 46.8645C34.387 46.702 34.6125 46.5744 34.861 46.4894C35.1329 46.3994 35.4224 46.3545 35.714 46.3573C35.9848 46.3517 36.2542 46.3926 36.5062 46.4776C36.7248 46.5587 36.9255 46.6712 37.0997 46.8102L36.9147 47.0319C36.9019 47.0475 36.8861 47.0611 36.8678 47.072C36.846 47.0848 36.8196 47.0907 36.7933 47.0886C36.7646 47.0869 36.737 47.0787 36.7132 47.065L36.6138 47.006L36.4758 46.9305C36.4162 46.9025 36.3544 46.8781 36.2909 46.8574C36.209 46.8324 36.125 46.8126 36.0397 46.7984C35.9314 46.7814 35.8213 46.7735 35.7112 46.7748C35.5012 46.7726 35.2929 46.8063 35.0984 46.8739C34.917 46.9365 34.7533 47.0314 34.6181 47.1522C34.4805 47.2807 34.3744 47.4315 34.3062 47.5957C34.2284 47.7835 34.1901 47.9815 34.193 48.1807C34.1897 48.3829 34.228 48.5841 34.3062 48.7751C34.3735 48.9378 34.4776 49.0877 34.6126 49.2162C34.739 49.336 34.8957 49.4295 35.0708 49.4898C35.251 49.5536 35.4444 49.5857 35.6394 49.5842C35.7521 49.5856 35.8647 49.5793 35.9762 49.5653C36.1582 49.5463 36.3328 49.4923 36.4869 49.4072C36.5641 49.3637 36.6371 49.3148 36.7049 49.261C36.7333 49.2379 36.7706 49.2244 36.8098 49.2233Z" fill="#8E8F99"/>
<path d="M43.1861 48.1803C43.1896 48.4305 43.139 48.6792 43.0371 48.9138C42.9471 49.1266 42.8054 49.3207 42.6213 49.4834C42.4371 49.646 42.2148 49.7734 41.9688 49.8573C41.4284 50.0334 40.831 50.0334 40.2906 49.8573C40.0462 49.7721 39.8253 49.6444 39.6419 49.4822C39.4579 49.3167 39.3151 49.1209 39.2223 48.9067C39.0235 48.4317 39.0235 47.9124 39.2223 47.4373C39.3165 47.2231 39.459 47.0267 39.6419 46.8595C39.8268 46.7024 40.0476 46.5796 40.2906 46.4986C40.8303 46.3193 41.4291 46.3193 41.9688 46.4986C42.214 46.5837 42.4359 46.7114 42.6203 46.8736C42.802 47.0376 42.9437 47.2308 43.0371 47.442C43.1393 47.6782 43.1899 47.9285 43.1861 48.1803ZM42.6065 48.1803C42.6108 47.9801 42.5753 47.7807 42.5016 47.5906C42.4397 47.4278 42.3392 47.2777 42.2062 47.1496C42.0768 47.0284 41.9174 46.9333 41.7397 46.8713C41.347 46.7423 40.9123 46.7423 40.5197 46.8713C40.3419 46.9333 40.1826 47.0284 40.0532 47.1496C39.9184 47.2769 39.8168 47.4272 39.7551 47.5906C39.6146 47.9746 39.6146 48.386 39.7551 48.7699C39.8174 48.9331 39.9189 49.0833 40.0532 49.211C40.1828 49.3315 40.3421 49.4257 40.5197 49.487C40.913 49.6126 41.3463 49.6126 41.7397 49.487C41.9173 49.4257 42.0766 49.3315 42.2062 49.211C42.3386 49.0826 42.4391 48.9325 42.5016 48.7699C42.5757 48.5799 42.6111 48.3805 42.6065 48.1803Z" fill="#8E8F99"/>
<path d="M47.5365 48.7987L47.5944 48.9308C47.6165 48.8836 47.6358 48.8412 47.6579 48.7987C47.679 48.7544 47.7029 48.7111 47.7297 48.669L49.1402 46.4781C49.1678 46.4404 49.1927 46.4168 49.2203 46.4097C49.2578 46.4 49.297 46.396 49.3362 46.3979H49.753V49.9614H49.2589V47.3413C49.2589 47.3083 49.2589 47.2705 49.2589 47.2304C49.2562 47.1896 49.2562 47.1486 49.2589 47.1078L47.8401 49.3293C47.8221 49.3626 47.7933 49.3908 47.757 49.4104C47.7208 49.4301 47.6787 49.4404 47.6358 49.4402H47.5558C47.5128 49.4407 47.4706 49.4305 47.4343 49.4108C47.398 49.3911 47.3692 49.3628 47.3515 49.3293L45.8913 47.0937C45.8913 47.1361 45.8913 47.1786 45.8913 47.221C45.8913 47.2635 45.8913 47.3012 45.8913 47.3342V49.9543H45.4138V46.3979H45.8306C45.8697 46.396 45.909 46.4 45.9465 46.4097C45.9807 46.4242 46.008 46.4484 46.0238 46.4781L47.4647 48.6714C47.493 48.7119 47.517 48.7545 47.5365 48.7987Z" fill="#8E8F99"/>
<path d="M52.8447 48.6217V49.9564H52.2926V46.3978H53.5237C53.7561 46.394 53.9878 46.4202 54.211 46.4756C54.3897 46.5189 54.5554 46.5945 54.6969 46.6973C54.8195 46.7937 54.914 46.9132 54.9729 47.0463C55.0381 47.1915 55.0699 47.346 55.0667 47.5015C55.0692 47.6576 55.0344 47.8124 54.9646 47.9566C54.8983 48.0932 54.7963 48.215 54.6665 48.3127C54.5249 48.4198 54.3584 48.5002 54.1779 48.5486C53.963 48.6072 53.7382 48.6351 53.5127 48.6311L52.8447 48.6217ZM52.8447 48.2396H53.5127C53.6578 48.2412 53.8022 48.2229 53.9405 48.1854C54.0546 48.1526 54.1598 48.1004 54.2497 48.0321C54.3326 47.9668 54.3968 47.8862 54.4374 47.7963C54.4826 47.7012 54.5051 47.5994 54.5036 47.4968C54.5101 47.3978 54.4912 47.2989 54.4483 47.2069C54.4054 47.1148 54.3395 47.0319 54.2552 46.9638C54.0443 46.8231 53.7794 46.755 53.5127 46.7728H52.8447V48.2396Z" fill="#8E8F99"/>
<path d="M60.2645 49.9613H59.8283C59.7846 49.9627 59.7416 49.951 59.7069 49.9282C59.6756 49.906 59.651 49.8777 59.6351 49.8457L59.2597 48.9848H57.3744L56.9852 49.8457C56.9709 49.8772 56.9471 49.9048 56.9162 49.9259C56.8811 49.95 56.837 49.9626 56.792 49.9613H56.3558L58.012 46.3975H58.5862L60.2645 49.9613ZM57.5317 48.6381H59.0886L58.4316 47.1876C58.3814 47.0785 58.3399 46.9666 58.3074 46.8527L58.2439 47.039C58.2246 47.0956 58.2025 47.1475 58.1832 47.1899L57.5317 48.6381Z" fill="#8E8F99"/>
<path d="M62.6495 46.414C62.6825 46.4295 62.7109 46.4513 62.7323 46.4777L65.1476 49.1641C65.1476 49.1216 65.1476 49.0792 65.1476 49.0391C65.1476 48.999 65.1476 48.9589 65.1476 48.9212V46.3975H65.6417V49.9613H65.3657C65.3265 49.9623 65.2876 49.955 65.2525 49.9401C65.2184 49.9231 65.1884 49.9006 65.1642 49.874L62.7517 47.19C62.7543 47.2309 62.7543 47.2718 62.7517 47.3126C62.7517 47.3527 62.7517 47.3881 62.7517 47.4211V49.9613H62.2576V46.3975H62.5502C62.5843 46.3967 62.6182 46.4024 62.6495 46.414Z" fill="#8E8F99"/>
<path d="M69.7104 48.5438V49.9589H69.1583V48.5438L67.6318 46.3975H68.1259C68.1685 46.3954 68.2106 46.4062 68.2446 46.4282C68.2747 46.4511 68.2999 46.4782 68.3192 46.5084L69.2743 47.8928C69.3129 47.9518 69.346 48.006 69.3736 48.0579C69.4012 48.1098 69.4233 48.1593 69.4426 48.2089L69.5144 48.0556C69.5412 47.9995 69.5726 47.9451 69.6083 47.8928L70.5495 46.4989C70.5693 46.4711 70.5935 46.4457 70.6213 46.4235C70.6541 46.399 70.6966 46.3864 70.74 46.3881H71.2396L69.7104 48.5438Z" fill="#8E8F99"/>
<path d="M47.2632 40.417C47.5033 40.4429 47.7462 40.4642 47.9919 40.483C51.7165 39.0595 54.8673 36.7295 57.0506 33.7844C59.2338 30.8393 60.3527 27.4097 60.2672 23.9243L56.1626 20.4172C56.9972 24.1281 56.6068 27.9642 55.0351 31.4963C53.4634 35.0284 50.7724 38.1171 47.2632 40.417Z" fill="#8E8F99"/>
<path d="M45.7975 40.2539L45.9079 40.2728C49.6578 37.9811 52.5168 34.7809 54.1151 31.0861C55.7135 27.3912 55.9776 23.3717 54.8735 19.5472L49.0271 14.5521C51.3918 18.658 52.3436 23.253 51.7719 27.8029C51.2002 32.3528 49.1284 36.6705 45.7975 40.2539Z" fill="#8E8F99"/>
<path d="M65.6251 28.0424C64.6318 31.872 62.2195 35.3258 58.7463 37.8911C57.7319 38.6444 56.6378 39.3155 55.478 39.8957C58.3062 39.1855 60.9057 37.9298 63.0761 36.2255C65.2465 34.5213 66.9298 32.4139 67.9962 30.0659L65.6251 28.0424Z" fill="#8E8F99"/>
<path d="M64.6948 27.4784L61.3189 24.594C61.2544 27.8825 60.1602 31.0963 58.15 33.9012C56.1399 36.7062 53.2871 39 49.8883 40.5442H49.9049C50.6623 40.5439 51.419 40.5053 52.1711 40.4286C55.3475 39.3209 58.1535 37.5586 60.3388 35.2989C62.524 33.0392 64.0206 30.3525 64.6948 27.4784Z" fill="#8E8F99"/>
<path d="M46.2861 12.4457L42.2587 9C38.6584 10.1887 35.562 12.2784 33.3747 14.9955C31.1875 17.7127 30.0112 20.9308 30 24.2285V24.2285C30.0135 27.8725 31.449 31.4085 34.0793 34.2769C36.7096 37.1454 40.3845 39.1824 44.5222 40.0656C48.216 36.2205 50.3786 31.4693 50.6958 26.5023C51.013 21.5353 49.4683 16.6113 46.2861 12.4457Z" fill="#8E8F99"/>
<path d="M74 26.9478C73.9854 22.6245 71.9689 18.4818 68.3908 15.4247C64.8127 12.3676 59.964 10.6447 54.9039 10.6322C52.5657 10.6301 50.2473 10.9988 48.0665 11.7194L72.7247 32.7873C73.569 30.925 74.0015 28.945 74 26.9478Z" fill="#8E8F99"/>
</svg>

<svg xmlns="http://www.w3.org/2000/svg" width="104" height="56" fill="none">
  <path fill="#8E8F99" d="m36.81 49.22.05.01.04.03.22.2c-.18.17-.39.3-.62.4-.28.1-.58.15-.89.14-.28 0-.56-.04-.82-.13a1.67 1.67 0 0 1-1.03-.95 1.89 1.89 0 0 1 .01-1.48c.1-.21.24-.41.43-.58.19-.16.41-.29.66-.37a2.64 2.64 0 0 1 1.65-.01c.21.08.42.2.59.33l-.19.22a.18.18 0 0 1-.04.04.13.13 0 0 1-.08.02.18.18 0 0 1-.08-.03l-.1-.05-.13-.08a1.6 1.6 0 0 0-.77-.16c-.2 0-.42.04-.61.1a1.28 1.28 0 0 0-.8.72c-.07.2-.11.4-.1.6a1.3 1.3 0 0 0 .88 1.3c.17.06.36.1.56.1l.34-.02a1.35 1.35 0 0 0 .72-.3.17.17 0 0 1 .11-.05ZM43.19 48.18c0 .25-.05.5-.15.73-.1.22-.23.41-.42.57-.18.17-.4.3-.65.38-.54.17-1.14.17-1.68 0a1.94 1.94 0 0 1-.65-.38 1.67 1.67 0 0 1-.42-.57c-.2-.48-.2-1 0-1.47.1-.22.24-.41.42-.58.19-.16.4-.28.65-.36a2.69 2.69 0 0 1 1.68 0c.24.08.47.21.65.37a1.69 1.69 0 0 1 .57 1.31Zm-.58 0c0-.2-.03-.4-.1-.59a1.21 1.21 0 0 0-.77-.72c-.4-.13-.83-.13-1.22 0-.18.06-.34.16-.47.28-.13.13-.23.28-.3.44-.14.38-.14.8 0 1.18a1.2 1.2 0 0 0 .77.72c.4.12.83.12 1.22 0a1.23 1.23 0 0 0 .76-.72c.08-.19.11-.39.1-.59ZM47.54 48.8l.05.13.07-.13.07-.13 1.41-2.2.08-.06a.39.39 0 0 1 .12-.01h.41v3.56h-.5v-2.85l-1.41 2.22a.2.2 0 0 1-.08.08.25.25 0 0 1-.12.03h-.08a.25.25 0 0 1-.13-.03.2.2 0 0 1-.08-.08l-1.46-2.24V49.95h-.48V46.4h.42l.12.01c.03.01.06.04.07.07l1.44 2.2c.03.03.06.07.08.12ZM52.84 48.62v1.34h-.55V46.4h1.23c.24 0 .47.02.7.08.17.04.34.11.48.22.12.1.21.21.27.35.07.14.1.3.1.45a1 1 0 0 1-.4.81c-.15.11-.31.19-.5.24-.2.06-.43.09-.66.08h-.67Zm0-.38h.67c.15 0 .3-.02.43-.05a.94.94 0 0 0 .31-.16.67.67 0 0 0 .25-.54.6.6 0 0 0-.05-.28.69.69 0 0 0-.2-.25 1.2 1.2 0 0 0-.74-.19h-.67v1.47ZM60.26 49.96h-.43a.21.21 0 0 1-.12-.03.22.22 0 0 1-.07-.08l-.38-.87h-1.89l-.38.87a.2.2 0 0 1-.07.08.21.21 0 0 1-.13.03h-.43L58 46.4h.58l1.67 3.56Zm-2.73-1.32h1.56l-.66-1.45c-.05-.11-.09-.22-.12-.34l-.07.19-.06.15-.65 1.45ZM62.65 46.41l.08.07 2.42 2.68V46.4h.5v3.56h-.28c-.04 0-.08 0-.12-.02a.3.3 0 0 1-.09-.07l-2.4-2.68v2.77h-.5V46.4h.29l.1.01ZM69.71 48.54v1.42h-.55v-1.42l-1.53-2.14h.5a.2.2 0 0 1 .11.03l.08.08.95 1.38a2.14 2.14 0 0 1 .17.32l.07-.15.1-.17.94-1.4a.38.38 0 0 1 .07-.07.19.19 0 0 1 .12-.03h.5l-1.53 2.15ZM47.26 40.42l.73.06a20.16 20.16 0 0 0 9.06-6.7 15.86 15.86 0 0 0 3.22-9.86l-4.1-3.5a17.6 17.6 0 0 1-1.13 11.08 20.97 20.97 0 0 1-7.78 8.92Z"/>
  <path fill="#8E8F99" d="m45.8 40.25.1.02c3.76-2.29 6.62-5.49 8.22-9.18 1.6-3.7 1.86-7.72.75-11.54l-5.84-5c2.36 4.1 3.31 8.7 2.74 13.25a22.42 22.42 0 0 1-5.97 12.45ZM65.63 28.04c-1 3.83-3.41 7.29-6.88 9.85-1.02.75-2.11 1.43-3.27 2a20.31 20.31 0 0 0 7.6-3.66A16.62 16.62 0 0 0 68 30.07l-2.37-2.03Z"/>
  <path fill="#8E8F99" d="m64.7 27.48-3.38-2.89a16.5 16.5 0 0 1-3.17 9.31 20.56 20.56 0 0 1-8.26 6.64h.01c.76 0 1.52-.03 2.27-.11a20.91 20.91 0 0 0 8.17-5.13 16.8 16.8 0 0 0 4.35-7.82ZM46.29 12.45 42.26 9a18.99 18.99 0 0 0-8.89 6A14.78 14.78 0 0 0 30 24.23a14.94 14.94 0 0 0 4.08 10.05c2.63 2.87 6.3 4.9 10.44 5.79 3.7-3.85 5.86-8.6 6.18-13.57.31-4.96-1.23-9.89-4.41-14.05ZM74 26.95c-.01-4.33-2.03-8.47-5.6-11.53a20.92 20.92 0 0 0-13.5-4.79c-2.33 0-4.65.37-6.83 1.09l24.65 21.07A14.09 14.09 0 0 0 74 26.95Z"/>
</svg>
